;FLAVOR:Marlin
;TIME:6073
;Filament used: 2.91825m
;Layer height: 0.2
;MINX:20.276
;MINY:36.272
;MINZ:0.2
;MAXX:47.776
;MAXY:63.728
;MAXZ:119.96
;Generated with Cura_SteamEngine 4.11.0
M140 S60
M105
M190 S60
M104 S200
M105
M109 S200
M82 ;absolute extrusion mode
M201 X500.00 Y500.00 Z100.00 E5000.00 ;Setup machine max acceleration
M203 X500.00 Y500.00 Z10.00 E50.00 ;Setup machine max feedrate
M204 P500.00 R1000.00 T500.00 ;Setup Print/Retract/Travel acceleration
M205 X8.00 Y8.00 Z0.40 E5.00 ;Setup Jerk
M220 S100 ;Reset Feedrate
M221 S100 ;Reset Flowrate

G28 ;Home

G92 E0 ;Reset Extruder
G1 Z2.0 F3000 ;Move Z Axis up
G1 X10.1 Y20 Z0.28 F5000.0 ;Move to start position
G1 X10.1 Y200.0 Z0.28 F1500.0 E15 ;Draw the first line
G1 X10.4 Y200.0 Z0.28 F5000.0 ;Move to side a little
G1 X10.4 Y20 Z0.28 F1500.0 E30 ;Draw the second line
G92 E0 ;Reset Extruder
G1 Z2.0 F3000 ;Move Z Axis up

G92 E0
G92 E0
G1 F1500 E-4.1
;LAYER_COUNT:501
;LAYER:0
M107
G0 F6000 X26.71 Y38.373 Z0.2
;TYPE:SKIRT
G1 F1500 E0
G1 F1200 X27.075 Y38.137 E0.01446
G1 X27.605 Y37.855 E0.03442
G1 X28.843 Y37.277 E0.07987
G1 X29.796 Y36.93 E0.1136
G1 X31.136 Y36.571 E0.15974
G1 X32.122 Y36.396 E0.19305
G1 X33.503 Y36.273 E0.23916
G1 X34.521 Y36.272 E0.27302
G1 X35.899 Y36.392 E0.31903
G1 X36.368 Y36.452 E0.33475
G1 X36.912 Y36.57 E0.35327
G1 X38.251 Y36.928 E0.39937
G1 X39.207 Y37.276 E0.4332
G1 X40.445 Y37.854 E0.47865
G1 X40.949 Y38.12 E0.4976
G1 X41.342 Y38.373 E0.51315
G1 X42.482 Y39.174 E0.55949
G1 X43.249 Y39.819 E0.59282
G1 X44.207 Y40.777 E0.63788
G1 X44.852 Y41.545 E0.67124
G1 X45.654 Y42.687 E0.71765
G1 X46.162 Y43.563 E0.75133
G1 X46.746 Y44.812 E0.79719
G1 X47.093 Y45.762 E0.83083
G1 X47.454 Y47.104 E0.87705
G1 X47.568 Y47.62 E0.89463
G1 X47.634 Y48.119 E0.91137
G1 X47.754 Y49.481 E0.95684
G1 X47.776 Y50.008 E0.97439
G1 X47.753 Y50.523 E0.99153
G1 X47.63 Y51.904 E1.03765
G1 X47.454 Y52.894 E1.07109
G1 X47.094 Y54.234 E1.11724
G1 X46.748 Y55.184 E1.15087
G1 X46.164 Y56.434 E1.19676
G1 X45.656 Y57.312 E1.2305
G1 X44.855 Y58.453 E1.27686
G1 X44.209 Y59.221 E1.31024
G1 X43.249 Y60.181 E1.3554
G1 X42.482 Y60.826 E1.38873
G1 X41.342 Y61.627 E1.43507
G1 X40.977 Y61.863 E1.44953
G1 X40.447 Y62.145 E1.46949
G1 X39.209 Y62.723 E1.51494
G1 X38.255 Y63.071 E1.54871
G1 X36.914 Y63.43 E1.59488
G1 X35.929 Y63.604 E1.62815
G1 X34.549 Y63.727 E1.67423
G1 X33.531 Y63.728 E1.70809
G1 X32.152 Y63.608 E1.75413
G1 X31.683 Y63.548 E1.76986
G1 X31.138 Y63.43 E1.7884
G1 X29.8 Y63.072 E1.83447
G1 X28.845 Y62.724 E1.86828
G1 X27.605 Y62.145 E1.9138
G1 X26.733 Y61.642 E1.94728
G1 X25.593 Y60.844 E1.99356
G1 X25.281 Y60.609 E2.00655
G1 X24.803 Y60.181 E2.02789
G1 X23.843 Y59.221 E2.07305
G1 X23.198 Y58.454 E2.10638
G1 X22.398 Y57.315 E2.15267
G1 X21.891 Y56.44 E2.18631
G1 X21.304 Y55.186 E2.23236
G1 X21.052 Y54.553 E2.25502
G1 X20.954 Y54.226 E2.26637
G1 X20.596 Y52.888 E2.31244
G1 X20.422 Y51.904 E2.34568
G1 X20.299 Y50.525 E2.39173
G1 X20.276 Y49.992 E2.40947
G1 X20.299 Y49.477 E2.42662
G1 X20.422 Y48.096 E2.47273
G1 X20.596 Y47.112 E2.50597
G1 X20.954 Y45.774 E2.55203
G1 X21.168 Y45.128 E2.57467
G1 X21.304 Y44.814 E2.58605
G1 X21.891 Y43.56 E2.6321
G1 X22.398 Y42.685 E2.66574
G1 X23.198 Y41.546 E2.71203
G1 X23.843 Y40.779 E2.74536
G1 X24.803 Y39.819 E2.79052
G1 X25.57 Y39.174 E2.82385
G1 X26.71 Y38.373 E2.87019
G0 F6000 X26.94 Y38.701
G1 F1200 X27.281 Y38.48 E2.8837
G1 X27.775 Y38.217 E2.90232
G1 X29.013 Y37.639 E2.94776
G1 X29.9 Y37.316 E2.97916
G1 X31.24 Y36.957 E3.0253
G1 X32.158 Y36.794 E3.05631
G1 X33.539 Y36.671 E3.10242
G1 X34.486 Y36.67 E3.13392
G1 X35.864 Y36.79 E3.17993
G1 X36.302 Y36.846 E3.19461
G1 X36.809 Y36.956 E3.21187
G1 X38.148 Y37.314 E3.25797
G1 X39.037 Y37.638 E3.28944
G1 X40.275 Y38.216 E3.33488
G1 X40.746 Y38.465 E3.3526
G1 X41.112 Y38.701 E3.36709
G1 X42.252 Y39.502 E3.41343
G1 X42.966 Y40.102 E3.44444
G1 X43.924 Y41.06 E3.48951
G1 X44.525 Y41.775 E3.52057
G1 X45.327 Y42.917 E3.56699
G1 X45.8 Y43.733 E3.59836
G1 X46.384 Y44.982 E3.64422
G1 X46.707 Y45.866 E3.67552
G1 X47.068 Y47.208 E3.72174
G1 X47.174 Y47.69 E3.73815
G1 X47.235 Y48.154 E3.75372
G1 X47.355 Y49.516 E3.7992
G1 X47.376 Y50.008 E3.81558
G1 X47.355 Y50.487 E3.83152
G1 X47.232 Y51.868 E3.87764
G1 X47.068 Y52.79 E3.90878
G1 X46.708 Y54.13 E3.95493
G1 X46.385 Y55.015 E3.98627
G1 X45.801 Y56.265 E4.03216
G1 X45.329 Y57.082 E4.06354
G1 X44.528 Y58.223 E4.10991
G1 X43.926 Y58.938 E4.14099
G1 X42.966 Y59.898 E4.18615
G1 X42.252 Y60.498 E4.21717
G1 X41.112 Y61.299 E4.26351
G1 X40.771 Y61.52 E4.27702
G1 X40.277 Y61.783 E4.29564
G1 X39.039 Y62.361 E4.34108
G1 X38.151 Y62.684 E4.37251
G1 X36.81 Y63.043 E4.41868
G1 X35.893 Y63.206 E4.44966
G1 X34.513 Y63.329 E4.49574
G1 X33.566 Y63.33 E4.52724
G1 X32.187 Y63.21 E4.57328
G1 X31.749 Y63.154 E4.58796
G1 X31.241 Y63.044 E4.60525
G1 X29.903 Y62.686 E4.65132
G1 X29.014 Y62.362 E4.68279
G1 X27.774 Y61.783 E4.72831
G1 X26.962 Y61.314 E4.75949
G1 X25.822 Y60.516 E4.80578
G1 X25.531 Y60.297 E4.81789
G1 X25.086 Y59.898 E4.83777
G1 X24.126 Y58.938 E4.88292
G1 X23.525 Y58.224 E4.91397
G1 X22.725 Y57.085 E4.96026
G1 X22.253 Y56.27 E4.99158
G1 X21.666 Y55.016 E5.03764
G1 X21.34 Y54.123 E5.06925
G1 X20.982 Y52.785 E5.11532
G1 X20.82 Y51.869 E5.14626
G1 X20.697 Y50.49 E5.19231
G1 X20.676 Y49.992 E5.20889
G1 X20.697 Y49.513 E5.22483
G1 X20.82 Y48.132 E5.27095
G1 X20.982 Y47.215 E5.30192
G1 X21.34 Y45.877 E5.34799
G1 X21.666 Y44.984 E5.37961
G1 X22.253 Y43.73 E5.42566
G1 X22.725 Y42.915 E5.45698
G1 X23.525 Y41.776 E5.50328
G1 X24.126 Y41.062 E5.53432
G1 X25.086 Y40.102 E5.57947
G1 X25.8 Y39.502 E5.61049
G1 X26.94 Y38.701 E5.65683
G0 F6000 X27.169 Y39.028
G1 F1200 X27.487 Y38.823 E5.66942
G1 X27.944 Y38.579 E5.68665
G1 X29.182 Y38.001 E5.73209
G1 X30.003 Y37.702 E5.76115
G1 X31.343 Y37.343 E5.80729
G1 X32.193 Y37.193 E5.836
G1 X33.574 Y37.07 E5.88211
G1 X34.452 Y37.069 E5.91132
G1 X35.83 Y37.189 E5.95732
G1 X36.236 Y37.241 E5.97094
G1 X36.705 Y37.343 E5.9869
G1 X38.044 Y37.701 E6.033
G1 X38.868 Y38 E6.06215
G1 X40.106 Y38.578 E6.1076
G1 X40.543 Y38.809 E6.12404
G1 X40.883 Y39.028 E6.13749
G1 X42.023 Y39.829 E6.18383
G1 X42.684 Y40.384 E6.21254
G1 X43.642 Y41.342 E6.2576
G1 X44.198 Y42.004 E6.28635
G1 X45 Y43.146 E6.33276
G1 X45.437 Y43.902 E6.36181
G1 X46.021 Y45.151 E6.40767
G1 X46.32 Y45.97 E6.43666
G1 X46.681 Y47.312 E6.48289
G1 X46.78 Y47.759 E6.49811
G1 X46.837 Y48.189 E6.51254
G1 X46.957 Y49.551 E6.55802
G1 X46.976 Y50.008 E6.57323
G1 X46.956 Y50.452 E6.58801
G1 X46.833 Y51.833 E6.63413
G1 X46.682 Y52.686 E6.66294
G1 X46.322 Y54.026 E6.70909
G1 X46.023 Y54.845 E6.73809
G1 X45.439 Y56.095 E6.78397
G1 X45.001 Y56.852 E6.81306
G1 X44.2 Y57.993 E6.85943
G1 X43.644 Y58.656 E6.88821
G1 X42.684 Y59.616 E6.93337
G1 X42.023 Y60.171 E6.96207
G1 X40.883 Y60.972 E7.00841
G1 X40.565 Y61.177 E7.021
G1 X40.108 Y61.421 E7.03823
G1 X38.87 Y61.999 E7.08367
G1 X38.048 Y62.298 E7.11276
G1 X36.707 Y62.657 E7.15894
G1 X35.858 Y62.807 E7.18761
G1 X34.478 Y62.93 E7.23369
G1 X33.601 Y62.931 E7.26286
G1 X32.222 Y62.811 E7.3089
G1 X31.815 Y62.759 E7.32255
G1 X31.345 Y62.657 E7.33854
G1 X30.007 Y62.299 E7.38461
G1 X29.184 Y61.999 E7.41375
G1 X27.944 Y61.42 E7.45926
G1 X27.192 Y60.986 E7.48814
G1 X26.052 Y60.188 E7.53442
G1 X25.781 Y59.984 E7.54571
G1 X25.368 Y59.616 E7.5641
G1 X24.408 Y58.656 E7.60926
G1 X23.852 Y57.994 E7.63801
G1 X23.052 Y56.855 E7.68431
G1 X22.616 Y56.101 E7.71328
G1 X22.029 Y54.847 E7.75933
G1 X21.727 Y54.019 E7.78864
G1 X21.369 Y52.681 E7.83471
G1 X21.219 Y51.833 E7.86335
G1 X21.096 Y50.454 E7.9094
G1 X21.076 Y49.992 E7.92478
G1 X21.096 Y49.548 E7.93956
G1 X21.219 Y48.167 E7.98568
G1 X21.369 Y47.319 E8.01432
G1 X21.727 Y45.981 E8.06039
G1 X22.029 Y45.153 E8.0897
G1 X22.616 Y43.899 E8.13575
G1 X23.052 Y43.145 E8.16472
G1 X23.852 Y42.006 E8.21102
G1 X24.408 Y41.344 E8.23977
G1 X25.368 Y40.384 E8.28492
G1 X26.029 Y39.829 E8.31363
G1 X27.169 Y39.028 E8.35997
G0 F6000 X27.399 Y39.355
G1 F1200 X27.692 Y39.166 E8.37157
G1 X28.113 Y38.942 E8.38743
G1 X29.351 Y38.364 E8.43287
G1 X30.107 Y38.089 E8.45963
G1 X31.447 Y37.73 E8.50577
G1 X32.229 Y37.591 E8.53219
G1 X33.61 Y37.468 E8.5783
G1 X34.417 Y37.467 E8.60514
G1 X35.795 Y37.587 E8.65115
G1 X36.17 Y37.636 E8.66373
G1 X36.602 Y37.729 E8.67842
G1 X37.941 Y38.087 E8.72452
G1 X38.699 Y38.363 E8.75135
G1 X39.937 Y38.941 E8.7968
G1 X40.34 Y39.154 E8.81196
G1 X40.653 Y39.355 E8.82433
G1 X41.793 Y40.156 E8.87067
G1 X42.401 Y40.667 E8.89709
G1 X43.359 Y41.625 E8.94215
G1 X43.87 Y42.234 E8.96859
G1 X44.672 Y43.376 E9.015
G1 X45.075 Y44.072 E9.04175
G1 X45.659 Y45.321 E9.08761
G1 X45.934 Y46.074 E9.11427
G1 X46.295 Y47.416 E9.16049
G1 X46.386 Y47.829 E9.17456
G1 X46.438 Y48.224 E9.18781
G1 X46.558 Y49.586 E9.23329
G1 X46.576 Y50.008 E9.24734
G1 X46.558 Y50.416 E9.26092
G1 X46.435 Y51.797 E9.30703
G1 X46.295 Y52.582 E9.33355
G1 X45.935 Y53.922 E9.3797
G1 X45.661 Y54.676 E9.40639
G1 X45.077 Y55.926 E9.45228
G1 X44.674 Y56.622 E9.47902
G1 X43.873 Y57.763 E9.52539
G1 X43.361 Y58.373 E9.55188
G1 X42.401 Y59.333 E9.59704
G1 X41.793 Y59.844 E9.62345
G1 X40.653 Y60.645 E9.66979
G1 X40.36 Y60.834 E9.68139
G1 X39.939 Y61.058 E9.69725
G1 X38.701 Y61.636 E9.74269
G1 X37.945 Y61.912 E9.76946
G1 X36.604 Y62.271 E9.81563
G1 X35.822 Y62.409 E9.84204
G1 X34.442 Y62.532 E9.88813
G1 X33.635 Y62.533 E9.91497
G1 X32.256 Y62.413 E9.96101
G1 X31.881 Y62.364 E9.97358
G1 X31.448 Y62.271 E9.98831
G1 X30.11 Y61.913 E10.03438
G1 X29.353 Y61.637 E10.06118
G1 X28.113 Y61.058 E10.1067
G1 X27.421 Y60.658 E10.13328
G1 X26.281 Y59.86 E10.17957
G1 X26.03 Y59.672 E10.19
G1 X25.651 Y59.333 E10.20691
G1 X24.691 Y58.373 E10.25206
G1 X24.18 Y57.764 E10.27851
G1 X23.38 Y56.625 E10.3248
G1 X22.978 Y55.931 E10.35147
G1 X22.391 Y54.677 E10.39753
G1 X22.113 Y53.916 E10.42447
G1 X21.755 Y52.578 E10.47054
G1 X21.617 Y51.798 E10.49689
G1 X21.494 Y50.419 E10.54293
G1 X21.476 Y49.992 E10.55715
G1 X21.494 Y49.584 E10.57073
G1 X21.617 Y48.203 E10.61685
G1 X21.755 Y47.422 E10.64322
G1 X22.113 Y46.084 E10.68929
G1 X22.391 Y45.323 E10.71624
G1 X22.978 Y44.069 E10.76229
G1 X23.38 Y43.375 E10.78897
G1 X24.18 Y42.236 E10.83526
G1 X24.691 Y41.627 E10.8617
G1 X25.651 Y40.667 E10.90686
G1 X26.259 Y40.156 E10.93327
G1 X27.399 Y39.355 E10.97961
G0 F6000 X27.629 Y39.682
G1 F1200 X27.898 Y39.509 E10.99025
G1 X28.282 Y39.304 E11.00473
G1 X29.52 Y38.726 E11.05017
G1 X30.21 Y38.475 E11.07459
G1 X31.55 Y38.116 E11.12073
G1 X32.264 Y37.99 E11.14485
G1 X33.645 Y37.867 E11.19096
G1 X34.382 Y37.866 E11.21547
G1 X35.76 Y37.986 E11.26148
G1 X36.104 Y38.03 E11.27301
G1 X36.499 Y38.116 E11.28646
G1 X37.838 Y38.474 E11.33256
G1 X38.53 Y38.725 E11.35704
G1 X39.768 Y39.303 E11.40249
G1 X40.137 Y39.499 E11.41638
G1 X40.423 Y39.682 E11.42768
G1 X41.563 Y40.483 E11.47402
G1 X42.118 Y40.95 E11.49814
G1 X43.076 Y41.908 E11.5432
G1 X43.543 Y42.464 E11.56735
G1 X44.345 Y43.606 E11.61377
G1 X44.713 Y44.241 E11.63818
G1 X45.297 Y45.49 E11.68404
G1 X45.548 Y46.178 E11.70839
G1 X45.909 Y47.52 E11.75462
G1 X45.992 Y47.898 E11.76749
G1 X46.04 Y48.259 E11.7796
G1 X46.16 Y49.621 E11.82508
G1 X46.176 Y50.008 E11.83796
G1 X46.159 Y50.381 E11.85038
G1 X46.036 Y51.762 E11.89649
G1 X45.909 Y52.479 E11.92071
G1 X45.549 Y53.819 E11.96686
G1 X45.298 Y54.507 E11.99122
G1 X44.714 Y55.757 E12.03711
G1 X44.347 Y56.392 E12.0615
G1 X43.546 Y57.533 E12.10787
G1 X43.078 Y58.09 E12.13206
G1 X42.118 Y59.05 E12.17722
G1 X41.563 Y59.517 E12.20135
G1 X40.423 Y60.318 E12.24769
G1 X40.154 Y60.491 E12.25832
G1 X39.77 Y60.696 E12.2728
G1 X38.532 Y61.274 E12.31824
G1 X37.841 Y61.525 E12.3427
G1 X36.5 Y61.884 E12.38887
G1 X35.787 Y62.01 E12.41295
G1 X34.407 Y62.133 E12.45903
G1 X33.67 Y62.134 E12.48354
G1 X32.291 Y62.014 E12.52958
G1 X31.947 Y61.97 E12.54112
G1 X31.551 Y61.884 E12.5546
G1 X30.213 Y61.526 E12.60066
G1 X29.522 Y61.275 E12.62512
G1 X28.282 Y60.696 E12.67063
G1 X27.65 Y60.331 E12.69491
G1 X26.51 Y59.533 E12.74119
G1 X26.28 Y59.36 E12.75076
G1 X25.934 Y59.05 E12.76621
G1 X24.974 Y58.09 E12.81137
G1 X24.507 Y57.534 E12.83552
G1 X23.707 Y56.395 E12.88181
G1 X23.34 Y55.762 E12.90615
G1 X22.753 Y54.508 E12.9522
G1 X22.5 Y53.813 E12.9768
G1 X22.142 Y52.475 E13.02287
G1 X22.016 Y51.762 E13.04695
G1 X21.893 Y50.383 E13.093
G1 X21.876 Y49.992 E13.10601
G1 X21.893 Y49.619 E13.11843
G1 X22.016 Y48.238 E13.16455
G1 X22.142 Y47.525 E13.18863
G1 X22.5 Y46.187 E13.2347
G1 X22.753 Y45.492 E13.2593
G1 X23.34 Y44.238 E13.30535
G1 X23.707 Y43.605 E13.32968
G1 X24.507 Y42.466 E13.37598
G1 X24.974 Y41.91 E13.40013
G1 X25.934 Y40.95 E13.44528
G1 X26.489 Y40.483 E13.46941
G1 X27.629 Y39.682 E13.51575
G0 F6000 X27.859 Y40.01
G1 F1200 X28.104 Y39.852 E13.52545
G1 X28.451 Y39.667 E13.53852
G1 X29.689 Y39.089 E13.58397
G1 X30.314 Y38.861 E13.6061
G1 X31.654 Y38.502 E13.65224
G1 X32.3 Y38.388 E13.67405
G1 X33.681 Y38.265 E13.72017
G1 X34.348 Y38.264 E13.74235
G1 X35.726 Y38.384 E13.78836
G1 X36.039 Y38.425 E13.79886
G1 X36.396 Y38.502 E13.811
G1 X37.735 Y38.86 E13.8571
G1 X38.361 Y39.088 E13.87926
G1 X39.599 Y39.666 E13.92471
G1 X39.935 Y39.844 E13.93735
G1 X40.193 Y40.01 E13.94756
G1 X41.333 Y40.811 E13.9939
G1 X41.835 Y41.233 E14.01571
G1 X42.793 Y42.191 E14.06077
G1 X43.216 Y42.694 E14.08263
G1 X44.018 Y43.836 E14.12904
G1 X44.35 Y44.41 E14.1511
G1 X44.934 Y45.659 E14.19696
G1 X45.162 Y46.282 E14.21902
G1 X45.523 Y47.624 E14.26524
G1 X45.598 Y47.968 E14.27695
G1 X45.641 Y48.294 E14.28789
G1 X45.761 Y49.656 E14.33337
G1 X45.776 Y50.008 E14.34508
G1 X45.761 Y50.345 E14.3563
G1 X45.638 Y51.726 E14.40242
G1 X45.523 Y52.375 E14.42434
G1 X45.163 Y53.715 E14.47049
G1 X44.936 Y54.337 E14.49251
G1 X44.352 Y55.587 E14.5384
G1 X44.019 Y56.162 E14.5605
G1 X43.218 Y57.303 E14.60687
G1 X42.795 Y57.807 E14.62875
G1 X41.835 Y58.767 E14.67391
G1 X41.333 Y59.189 E14.69572
G1 X40.193 Y59.99 E14.74206
G1 X39.948 Y60.148 E14.75176
G1 X39.601 Y60.333 E14.76484
G1 X38.363 Y60.911 E14.81028
G1 X37.738 Y61.139 E14.83241
G1 X36.397 Y61.498 E14.87858
G1 X35.751 Y61.612 E14.9004
G1 X34.371 Y61.735 E14.94648
G1 X33.705 Y61.736 E14.96863
G1 X32.326 Y61.616 E15.01467
G1 X32.012 Y61.575 E15.0252
G1 X31.655 Y61.498 E15.03735
G1 X30.317 Y61.14 E15.08342
G1 X29.691 Y60.912 E15.10557
G1 X28.451 Y60.333 E15.15109
G1 X27.88 Y60.003 E15.17303
G1 X26.74 Y59.205 E15.21931
G1 X26.53 Y59.047 E15.22805
G1 X26.217 Y58.767 E15.24202
G1 X25.257 Y57.807 E15.28717
G1 X24.834 Y57.304 E15.30903
G1 X24.034 Y56.165 E15.35533
G1 X23.702 Y55.592 E15.37735
G1 X23.115 Y54.338 E15.4234
G1 X22.886 Y53.709 E15.44567
G1 X22.528 Y52.371 E15.49174
G1 X22.414 Y51.727 E15.51349
G1 X22.291 Y50.348 E15.55954
G1 X22.276 Y49.992 E15.57139
G1 X22.291 Y49.655 E15.58261
G1 X22.414 Y48.274 E15.62872
G1 X22.528 Y47.629 E15.65051
G1 X22.886 Y46.291 E15.69657
G1 X23.115 Y45.662 E15.71884
G1 X23.702 Y44.408 E15.76489
G1 X24.034 Y43.835 E15.78692
G1 X24.834 Y42.696 E15.83321
G1 X25.257 Y42.193 E15.85507
G1 X26.217 Y41.233 E15.90022
G1 X26.719 Y40.811 E15.92204
G1 X27.859 Y40.01 E15.96838
G0 F6000 X28.089 Y40.337
G1 F1200 X28.31 Y40.195 E15.97711
G1 X28.621 Y40.029 E15.98884
G1 X29.859 Y39.451 E16.03428
G1 X30.417 Y39.248 E16.05403
G1 X31.757 Y38.889 E16.10017
G1 X32.335 Y38.786 E16.1197
G1 X33.716 Y38.663 E16.16581
G1 X34.313 Y38.663 E16.18567
G1 X35.691 Y38.783 E16.23168
G1 X35.973 Y38.819 E16.24113
G1 X36.292 Y38.888 E16.25199
G1 X37.631 Y39.246 E16.29809
G1 X38.191 Y39.45 E16.31791
G1 X39.429 Y40.028 E16.36335
G1 X39.732 Y40.188 E16.37475
G1 X39.963 Y40.337 E16.38389
G1 X41.103 Y41.138 E16.43023
G1 X41.552 Y41.516 E16.44975
G1 X42.51 Y42.474 E16.49481
