;FLAVOR:Marlin
;TIME:8021
;Filament used: 5.16903m
;Layer height: 0.2
;MINX:3.076
;MINY:13.112
;MINZ:0.2
;MAXX:94.779
;MAXY:122.341
;MAXZ:11.32
;Generated with Cura_SteamEngine 4.11.0
M140 S60
M105
M190 S60
M104 S200
M105
M109 S200
M82 ;absolute extrusion mode
M201 X500.00 Y500.00 Z100.00 E5000.00 ;Setup machine max acceleration
M203 X500.00 Y500.00 Z10.00 E50.00 ;Setup machine max feedrate
M204 P500.00 R1000.00 T500.00 ;Setup Print/Retract/Travel acceleration
M205 X8.00 Y8.00 Z0.40 E5.00 ;Setup Jerk
M220 S100 ;Reset Feedrate
M221 S100 ;Reset Flowrate

G28 ;Home

G92 E0 ;Reset Extruder
G1 Z2.0 F3000 ;Move Z Axis up
G1 X10.1 Y20 Z0.28 F5000.0 ;Move to start position
G1 X10.1 Y200.0 Z0.28 F1500.0 E15 ;Draw the first line
G1 X10.4 Y200.0 Z0.28 F5000.0 ;Move to side a little
G1 X10.4 Y20 Z0.28 F1500.0 E30 ;Draw the second line
G92 E0 ;Reset Extruder
G1 Z2.0 F3000 ;Move Z Axis up

G92 E0
G92 E0
G1 F1500 E-4.1
;LAYER_COUNT:50
;LAYER:0
M107
G0 F6000 X10.796 Y14.843 Z0.2
;TYPE:SKIRT
G1 F1500 E0
G1 F1200 X11.665 Y14.338 E0.03343
G1 X12.451 Y13.968 E0.06232
G1 X13.083 Y13.715 E0.08497
G1 X13.421 Y13.613 E0.09671
G1 X14.265 Y13.387 E0.12577
G1 X15.247 Y13.213 E0.15894
G1 X16.117 Y13.135 E0.18799
G1 X16.635 Y13.112 E0.20524
G1 X23.647 Y13.112 E0.43846
G1 X24.164 Y13.135 E0.45567
G1 X25.035 Y13.213 E0.48475
G1 X26.017 Y13.387 E0.51793
G1 X26.858 Y13.612 E0.54688
G1 X27.504 Y13.826 E0.56952
G1 X27.83 Y13.968 E0.58134
G1 X28.618 Y14.339 E0.61031
G1 X29.482 Y14.841 E0.64355
G1 X30.199 Y15.345 E0.6727
G1 X30.962 Y15.985 E0.70582
G1 X31.562 Y16.584 E0.73402
G1 X32.208 Y17.352 E0.7674
G1 X32.713 Y18.07 E0.79659
G1 X33.221 Y18.945 E0.83024
G1 X33.588 Y19.728 E0.859
G1 X33.936 Y20.681 E0.89275
G1 X34.164 Y21.527 E0.92189
G1 X34.279 Y22.045 E0.93954
G1 X34.345 Y22.547 E0.95638
G1 X34.419 Y23.392 E0.98459
G1 X34.43 Y23.646 E0.99305
G1 X34.66 Y23.556 E1.00126
G1 X35.319 Y23.383 E1.02392
G1 X35.993 Y23.289 E1.04656
G1 X36.46 Y23.27 E1.0621
G1 X61.226 Y23.27 E1.88582
G1 X61.906 Y23.31 E1.90848
G1 X62.069 Y23.339 E1.91399
G1 X62.296 Y23.25 E1.9221
G1 X62.955 Y23.077 E1.94476
G1 X63.629 Y22.983 E1.96739
G1 X64.096 Y22.964 E1.98294
G1 X88.862 Y22.964 E2.80666
G1 X89.542 Y23.004 E2.82931
G1 X90.212 Y23.123 E2.85195
G1 X90.864 Y23.32 E2.8746
G1 X91.488 Y23.592 E2.89724
G1 X92.076 Y23.936 E2.9199
G1 X92.62 Y24.346 E2.94256
G1 X92.963 Y24.663 E2.95809
G1 X93.08 Y24.78 E2.96359
G1 X93.533 Y25.289 E2.98626
G1 X93.922 Y25.847 E3.00888
G1 X94.244 Y26.447 E3.03153
G1 X94.493 Y27.081 E3.05418
G1 X94.666 Y27.74 E3.07684
G1 X94.76 Y28.414 E3.09948
G1 X94.779 Y28.881 E3.11502
G1 X94.779 Y65.747 E4.34119
G1 X94.739 Y66.427 E4.36385
G1 X94.62 Y67.097 E4.38648
G1 X94.423 Y67.749 E4.40913
G1 X94.151 Y68.373 E4.43177
G1 X93.919 Y68.77 E4.44707
G1 X93.923 Y68.87 E4.4504
G1 X93.923 Y93.636 E5.27412
G1 X93.883 Y94.316 E5.29677
G1 X93.764 Y94.986 E5.31941
G1 X93.567 Y95.638 E5.34206
G1 X93.295 Y96.262 E5.3647
G1 X92.951 Y96.85 E5.38736
G1 X92.541 Y97.394 E5.41002
G1 X92.224 Y97.737 E5.42555
G1 X92.107 Y97.854 E5.43105
G1 X91.598 Y98.307 E5.45372
G1 X91.04 Y98.696 E5.47634
G1 X90.44 Y99.018 E5.49899
G1 X89.806 Y99.267 E5.52164
G1 X89.147 Y99.44 E5.5443
G1 X88.473 Y99.534 E5.56694
G1 X88.006 Y99.553 E5.58248
G1 X53.944 Y99.553 E6.71539
G1 X53.944 Y116.424 E7.27652
G1 X53.904 Y117.104 E7.29918
G1 X53.785 Y117.774 E7.32181
G1 X53.588 Y118.426 E7.34447
G1 X53.316 Y119.05 E7.36711
G1 X52.972 Y119.638 E7.38976
G1 X52.562 Y120.182 E7.41242
G1 X52.245 Y120.525 E7.42795
G1 X52.128 Y120.642 E7.43346
G1 X51.619 Y121.095 E7.45612
G1 X51.061 Y121.484 E7.47875
G1 X50.461 Y121.806 E7.50139
G1 X49.827 Y122.055 E7.52405
G1 X49.168 Y122.228 E7.54671
G1 X48.494 Y122.322 E7.56934
G1 X48.027 Y122.341 E7.58489
G1 X11.161 Y122.341 E8.81106
G1 X10.481 Y122.301 E8.83371
G1 X9.811 Y122.182 E8.85635
G1 X9.159 Y121.985 E8.879
G1 X8.535 Y121.713 E8.90164
G1 X7.947 Y121.369 E8.9243
G1 X7.403 Y120.959 E8.94696
G1 X7.06 Y120.642 E8.96249
G1 X6.943 Y120.525 E8.96799
G1 X6.49 Y120.016 E8.99066
G1 X6.101 Y119.458 E9.01328
G1 X5.779 Y118.858 E9.03593
G1 X5.53 Y118.224 E9.05858
G1 X5.357 Y117.565 E9.08124
G1 X5.263 Y116.891 E9.10388
G1 X5.244 Y116.424 E9.11942
G1 X5.244 Y91.658 E9.94314
G1 X5.284 Y90.978 E9.9658
G1 X5.403 Y90.308 E9.98843
G1 X5.539 Y89.859 E10.00404
G1 X5.468 Y89.776 E10.00767
G1 X4.944 Y89.055 E10.03731
G1 X4.514 Y88.357 E10.06458
G1 X4.096 Y87.541 E10.09508
G1 X3.778 Y86.776 E10.12263
G1 X3.495 Y85.906 E10.15306
G1 X3.3 Y85.095 E10.1808
G1 X3.157 Y84.193 E10.21118
G1 X3.094 Y83.39 E10.23797
G1 X3.076 Y82.936 E10.25308
G1 X3.076 Y75.912 E10.4867
G1 X3.094 Y75.458 E10.50181
G1 X3.157 Y74.656 E10.52857
G1 X3.186 Y74.375 E10.53796
G1 X3.304 Y73.729 E10.5598
G1 X3.497 Y72.932 E10.58708
G1 X3.78 Y72.067 E10.61735
G1 X4.097 Y71.306 E10.64477
G1 X4.511 Y70.497 E10.675
G1 X4.946 Y69.79 E10.7026
G1 X5.479 Y69.058 E10.73272
G1 X6.012 Y68.435 E10.75999
G1 X6.653 Y67.795 E10.79012
G1 X6.917 Y67.57 E10.80166
G1 X6.693 Y67.091 E10.81924
G1 X6.345 Y66.138 E10.85299
G1 X6.118 Y65.294 E10.88206
G1 X5.943 Y64.311 E10.91526
G1 X5.865 Y63.449 E10.94405
G1 X5.841 Y62.926 E10.96147
G1 X5.841 Y23.9 E12.25948
G1 X5.864 Y23.379 E12.27682
G1 X5.942 Y22.515 E12.30567
G1 X6.118 Y21.53 E12.33895
G1 X6.345 Y20.686 E12.36802
G1 X6.693 Y19.733 E12.40177
G1 X7.06 Y18.949 E12.43056
G1 X7.568 Y18.073 E12.46424
G1 X8.072 Y17.356 E12.49339
G1 X8.719 Y16.586 E12.52684
G1 X9.321 Y15.985 E12.55513
G1 X10.08 Y15.347 E12.58811
G1 X10.796 Y14.843 E12.61723
G0 F6000 X11.027 Y15.17
G1 F1200 X11.835 Y14.7 E12.64832
G1 X12.621 Y14.33 E12.67722
G1 X13.524 Y14 E12.70919
G1 X14.368 Y13.774 E12.73826
G1 X15.283 Y13.612 E12.76916
G1 X16.153 Y13.534 E12.79821
G1 X16.635 Y13.512 E12.81426
G1 X23.647 Y13.512 E13.04748
G1 X24.129 Y13.534 E13.06353
G1 X25 Y13.612 E13.09262
G1 X25.914 Y13.773 E13.12348
G1 X26.755 Y13.998 E13.15244
G1 X27.659 Y14.329 E13.18446
G1 X28.447 Y14.7 E13.21343
G1 X29.252 Y15.168 E13.2444
G1 X29.969 Y15.672 E13.27355
G1 X30.679 Y16.268 E13.30438
G1 X31.279 Y16.867 E13.33258
G1 X31.881 Y17.582 E13.36367
G1 X32.386 Y18.3 E13.39286
G1 X32.859 Y19.115 E13.4242
G1 X33.226 Y19.898 E13.45296
G1 X33.55 Y20.785 E13.48437
G1 X33.778 Y21.631 E13.51351
G1 X33.885 Y22.115 E13.53
G1 X33.946 Y22.582 E13.54567
G1 X34.02 Y23.427 E13.57388
G1 X34.041 Y23.898 E13.58956
G1 X34.041 Y24.253 E13.60137
G1 X34.257 Y24.14 E13.60947
G1 X34.872 Y23.909 E13.63132
G1 X35.511 Y23.754 E13.65319
G1 X36.46 Y23.67 E13.68488
G1 X61.226 Y23.67 E14.5086
G1 X61.882 Y23.71 E14.53046
G1 X62.111 Y23.752 E14.5382
G1 X62.508 Y23.603 E14.55231
G1 X63.147 Y23.448 E14.57418
G1 X64.096 Y23.364 E14.60587
G1 X88.862 Y23.364 E15.42959
G1 X89.518 Y23.404 E15.45144
G1 X90.164 Y23.523 E15.47329
G1 X90.791 Y23.72 E15.49515
G1 X91.389 Y23.992 E15.517
G1 X91.95 Y24.334 E15.53885
G1 X92.68 Y24.946 E15.57054
G1 X92.797 Y25.063 E15.57604
G1 X93.233 Y25.555 E15.59791
G1 X93.605 Y26.096 E15.61974
G1 X93.909 Y26.678 E15.64158
G1 X94.14 Y27.293 E15.66343
G1 X94.295 Y27.932 E15.6853
G1 X94.379 Y28.881 E15.71699
G1 X94.379 Y65.747 E16.94316
G1 X94.339 Y66.403 E16.96502
G1 X94.22 Y67.049 E16.98686
G1 X94.023 Y67.676 E17.00872
G1 X93.751 Y68.274 E17.03057
G1 X93.506 Y68.676 E17.04623
G1 X93.523 Y68.87 E17.05271
G1 X93.523 Y93.636 E17.87643
G1 X93.483 Y94.292 E17.89829
G1 X93.364 Y94.938 E17.92014
G1 X93.167 Y95.565 E17.942
G1 X92.895 Y96.163 E17.96385
G1 X92.553 Y96.724 E17.9857
G1 X91.941 Y97.454 E18.01738
G1 X91.824 Y97.571 E18.02289
G1 X91.332 Y98.007 E18.04475
G1 X90.791 Y98.379 E18.06659
G1 X90.209 Y98.683 E18.08843
G1 X89.594 Y98.914 E18.11028
G1 X88.955 Y99.069 E18.13215
G1 X88.006 Y99.153 E18.16383
G1 X53.544 Y99.153 E19.31004
G1 X53.544 Y116.424 E19.88448
G1 X53.504 Y117.08 E19.90634
G1 X53.385 Y117.726 E19.92819
G1 X53.188 Y118.353 E19.95005
G1 X52.916 Y118.951 E19.9719
G1 X52.574 Y119.512 E19.99375
G1 X51.962 Y120.242 E20.02543
G1 X51.845 Y120.359 E20.03094
G1 X51.353 Y120.795 E20.0528
G1 X50.812 Y121.167 E20.07464
G1 X50.23 Y121.471 E20.09648
G1 X49.615 Y121.702 E20.11833
G1 X48.976 Y121.857 E20.1402
G1 X48.027 Y121.941 E20.17188
G1 X11.161 Y121.941 E21.39805
G1 X10.505 Y121.901 E21.41991
G1 X9.859 Y121.782 E21.44176
G1 X9.232 Y121.585 E21.46362
G1 X8.634 Y121.313 E21.48547
G1 X8.073 Y120.971 E21.50732
G1 X7.343 Y120.359 E21.53901
G1 X7.226 Y120.242 E21.54451
G1 X6.79 Y119.75 E21.56637
G1 X6.418 Y119.209 E21.58821
G1 X6.114 Y118.627 E21.61005
G1 X5.883 Y118.012 E21.6319
G1 X5.728 Y117.373 E21.65377
G1 X5.644 Y116.424 E21.68546
G1 X5.644 Y91.658 E22.50918
G1 X5.684 Y91.002 E22.53104
G1 X5.803 Y90.356 E22.55288
G1 X5.988 Y89.768 E22.57339
G1 X5.773 Y89.516 E22.5844
G1 X5.284 Y88.845 E22.61202
G1 X4.854 Y88.147 E22.63929
G1 X4.466 Y87.388 E22.66764
G1 X4.148 Y86.623 E22.69519
G1 X3.884 Y85.812 E22.72356
G1 X3.689 Y85.001 E22.7513
G1 X3.556 Y84.161 E22.77959
G1 X3.493 Y83.358 E22.80638
G1 X3.476 Y82.936 E22.82043
G1 X3.476 Y75.912 E23.05405
G1 X3.493 Y75.489 E23.06813
G1 X3.556 Y74.687 E23.09488
G1 X3.583 Y74.424 E23.10368
G1 X3.693 Y73.823 E23.124
G1 X3.886 Y73.026 E23.15127
G1 X4.149 Y72.221 E23.17944
G1 X4.466 Y71.46 E23.20686
G1 X4.852 Y70.706 E23.23503
G1 X5.287 Y69.999 E23.26264
G1 X5.783 Y69.319 E23.29064
G1 X6.316 Y68.696 E23.3179
G1 X6.912 Y68.099 E23.34596
G1 X7.408 Y67.675 E23.36767
G1 X7.055 Y66.921 E23.39536
G1 X6.731 Y66.035 E23.42673
G1 X6.504 Y65.191 E23.4558
G1 X6.341 Y64.275 E23.48675
G1 X6.263 Y63.413 E23.51553
G1 X6.241 Y62.926 E23.53175
G1 X6.241 Y23.9 E24.82976
G1 X6.263 Y23.414 E24.84594
G1 X6.341 Y22.55 E24.87479
G1 X6.504 Y21.633 E24.90577
G1 X6.731 Y20.789 E24.93484
G1 X7.055 Y19.903 E24.96622
G1 X7.422 Y19.119 E24.99501
G1 X7.895 Y18.303 E25.02638
G1 X8.399 Y17.586 E25.05553
G1 X9.002 Y16.869 E25.08669
G1 X9.604 Y16.268 E25.11498
G1 X10.311 Y15.674 E25.14569
G1 X11.027 Y15.17 E25.17482
G0 F6000 X11.257 Y15.497
G1 F1200 X12.005 Y15.062 E25.2036
G1 X12.791 Y14.692 E25.23249
G1 X13.628 Y14.386 E25.26213
G1 X14.472 Y14.16 E25.29119
G1 X15.319 Y14.01 E25.3198
G1 X16.189 Y13.932 E25.34885
G1 X16.635 Y13.912 E25.3637
G1 X23.647 Y13.912 E25.59692
G1 X24.093 Y13.932 E25.61177
G1 X24.964 Y14.01 E25.64086
G1 X25.81 Y14.16 E25.66943
G1 X26.651 Y14.385 E25.69839
G1 X27.489 Y14.691 E25.72806
G1 X28.277 Y15.062 E25.75703
G1 X29.022 Y15.495 E25.78569
G1 X29.739 Y15.999 E25.81484
G1 X30.397 Y16.552 E25.84343
G1 X30.997 Y17.151 E25.87163
G1 X31.554 Y17.813 E25.9004
G1 X32.059 Y18.531 E25.9296
G1 X32.496 Y19.285 E25.95858
G1 X32.863 Y20.068 E25.98734
G1 X33.164 Y20.889 E26.01643
G1 X33.392 Y21.735 E26.04557
G1 X33.491 Y22.184 E26.06086
G1 X33.548 Y22.617 E26.07539
G1 X33.622 Y23.462 E26.1036
G1 X33.641 Y23.898 E26.11812
G1 X33.641 Y24.953 E26.15321
G1 X33.922 Y24.762 E26.16451
G1 X34.486 Y24.476 E26.18554
G1 X35.081 Y24.264 E26.20655
G1 X35.699 Y24.128 E26.22759
G1 X36.46 Y24.07 E26.25298
G1 X61.226 Y24.07 E27.0767
G1 X61.857 Y24.11 E27.09773
G1 X62.139 Y24.164 E27.10728
G1 X62.717 Y23.958 E27.12769
G1 X63.335 Y23.822 E27.14873
G1 X64.096 Y23.764 E27.17412
G1 X88.862 Y23.764 E27.99784
G1 X89.493 Y23.804 E28.01887
G1 X90.114 Y23.923 E28.0399
G1 X90.714 Y24.12 E28.0609
G1 X91.286 Y24.391 E28.08195
G1 X91.818 Y24.731 E28.10295
G1 X92.398 Y25.228 E28.12836
G1 X92.515 Y25.345 E28.13386
G1 X92.932 Y25.82 E28.15488
G1 X93.287 Y26.343 E28.17591
G1 X93.573 Y26.907 E28.19694
G1 X93.785 Y27.502 E28.21795
G1 X93.921 Y28.12 E28.239
G1 X93.979 Y28.881 E28.26438
G1 X93.979 Y65.747 E29.49055
G1 X93.939 Y66.378 E29.51158
G1 X93.82 Y66.999 E29.53261
G1 X93.623 Y67.599 E29.55361
G1 X93.352 Y68.171 E29.57466
G1 X93.1 Y68.566 E29.59025
G1 X93.123 Y68.87 E29.60039
G1 X93.123 Y93.636 E30.42411
G1 X93.083 Y94.267 E30.44514
G1 X92.964 Y94.888 E30.46617
G1 X92.767 Y95.488 E30.48717
G1 X92.496 Y96.06 E30.50822
G1 X92.156 Y96.592 E30.52922
G1 X91.659 Y97.172 E30.55463
G1 X91.542 Y97.289 E30.56013
G1 X91.067 Y97.706 E30.58115
G1 X90.544 Y98.061 E30.60218
G1 X89.98 Y98.347 E30.62321
G1 X89.385 Y98.559 E30.64422
G1 X88.767 Y98.695 E30.66527
G1 X88.006 Y98.753 E30.69065
G1 X53.144 Y98.753 E31.85017
G1 X53.144 Y116.424 E32.4379
G1 X53.104 Y117.055 E32.45893
G1 X52.985 Y117.676 E32.47996
G1 X52.788 Y118.276 E32.50097
G1 X52.517 Y118.848 E32.52202
G1 X52.177 Y119.38 E32.54302
G1 X51.68 Y119.96 E32.56842
G1 X51.563 Y120.077 E32.57393
G1 X51.088 Y120.494 E32.59495
G1 X50.565 Y120.849 E32.61597
G1 X50.001 Y121.135 E32.63701
G1 X49.406 Y121.347 E32.65802
G1 X48.788 Y121.483 E32.67906
G1 X48.027 Y121.541 E32.70445
G1 X11.161 Y121.541 E33.93061
G1 X10.53 Y121.501 E33.95164
G1 X9.909 Y121.382 E33.97267
G1 X9.309 Y121.185 E33.99368
G1 X8.737 Y120.914 E34.01473
G1 X8.205 Y120.574 E34.03573
G1 X7.625 Y120.077 E34.06113
G1 X7.508 Y119.96 E34.06664
G1 X7.091 Y119.485 E34.08766
G1 X6.736 Y118.962 E34.10868
G1 X6.45 Y118.398 E34.12972
G1 X6.238 Y117.803 E34.15073
G1 X6.102 Y117.185 E34.17177
G1 X6.044 Y116.424 E34.19716
G1 X6.044 Y91.658 E35.02088
G1 X6.084 Y91.027 E35.04191
G1 X6.203 Y90.406 E35.06294
G1 X6.4 Y89.806 E35.08394
G1 X6.452 Y89.697 E35.08796
G1 X6.077 Y89.257 E35.10719
G1 X5.625 Y88.636 E35.13273
G1 X5.195 Y87.938 E35.16
G1 X4.835 Y87.234 E35.1863
G1 X4.517 Y86.469 E35.21385
G1 X4.273 Y85.719 E35.24009
G1 X4.078 Y84.908 E35.26783
G1 X3.954 Y84.13 E35.29403
G1 X3.891 Y83.327 E35.32082
G1 X3.876 Y82.936 E35.33384
G1 X3.876 Y75.912 E35.56745
G1 X3.891 Y75.52 E35.5805
G1 X3.954 Y74.718 E35.60726
G1 X3.98 Y74.474 E35.61542
G1 X4.081 Y73.917 E35.63425
G1 X4.274 Y73.12 E35.66152
G1 X4.518 Y72.374 E35.68763
G1 X4.835 Y71.613 E35.71505
G1 X5.193 Y70.916 E35.74111
G1 X5.628 Y70.209 E35.76872
G1 X6.087 Y69.579 E35.79464
G1 X6.62 Y68.956 E35.82191
G1 X7.172 Y68.404 E35.84788
G1 X7.788 Y67.878 E35.87482
G1 X7.925 Y67.778 E35.88046
G1 X7.785 Y67.536 E35.88976
G1 X7.418 Y66.752 E35.91855
G1 X7.118 Y65.931 E35.94762
G1 X6.891 Y65.087 E35.97669
G1 X6.739 Y64.239 E36.00535
G1 X6.661 Y63.377 E36.03413
G1 X6.641 Y62.926 E36.04915
G1 X6.641 Y23.9 E37.34716
G1 X6.661 Y23.45 E37.36214
G1 X6.739 Y22.586 E37.39099
G1 X6.891 Y21.737 E37.41968
G1 X7.118 Y20.893 E37.44875
G1 X7.418 Y20.072 E37.47782
G1 X7.785 Y19.288 E37.50661
G1 X8.222 Y18.533 E37.53563
G1 X8.726 Y17.816 E37.56478
G1 X9.284 Y17.153 E37.5936
G1 X9.886 Y16.552 E37.62189
G1 X10.541 Y16.001 E37.65036
G1 X11.257 Y15.497 E37.67948
G0 F6000 X11.487 Y15.824
G1 F1200 X12.176 Y15.424 E37.70598
G1 X12.962 Y15.054 E37.73488
G1 X13.731 Y14.773 E37.76211
G1 X14.575 Y14.547 E37.79117
G1 X15.354 Y14.408 E37.81749
G1 X16.224 Y14.33 E37.84654
G1 X16.635 Y14.312 E37.86022
G1 X23.647 Y14.312 E38.09344
G1 X24.057 Y14.33 E38.10709
G1 X24.928 Y14.408 E38.13618
G1 X25.707 Y14.546 E38.16249
G1 X26.548 Y14.771 E38.19145
G1 X27.318 Y15.053 E38.21872
G1 X28.106 Y15.424 E38.24769
G1 X28.792 Y15.823 E38.27408
G1 X29.509 Y16.327 E38.30323
G1 X30.114 Y16.835 E38.32951
G1 X30.714 Y17.434 E38.35771
G1 X31.227 Y18.043 E38.38419
G1 X31.732 Y18.761 E38.41339
G1 X32.134 Y19.455 E38.44006
G1 X32.501 Y20.238 E38.46882
G1 X32.778 Y20.993 E38.49557
G1 X33.006 Y21.839 E38.52472
G1 X33.097 Y22.254 E38.53885
G1 X33.149 Y22.652 E38.5522
G1 X33.223 Y23.497 E38.58041
G1 X33.241 Y23.898 E38.59376
G1 X33.241 Y25.787 E38.65659
G1 X33.663 Y25.418 E38.67523
G1 X34.168 Y25.082 E38.69541
G1 X34.712 Y24.815 E38.71556
G1 X35.287 Y24.622 E38.73574
G1 X35.882 Y24.506 E38.7559
G1 X36.46 Y24.47 E38.77516
G1 X61.226 Y24.47 E39.59888
G1 X61.831 Y24.51 E39.61905
G1 X62.197 Y24.583 E39.63146
G1 X62.348 Y24.509 E39.63705
G1 X62.923 Y24.316 E39.65723
G1 X63.518 Y24.2 E39.67739
G1 X64.096 Y24.164 E39.69665
G1 X88.862 Y24.164 E40.52037
